icons/account-box.svg

﻿<?xml version="1.0" encoding="utf-8"?>
<!DOCTYPE svg PUBLIC "-//W3C//DTD SVG 1.1//EN" "http://www.w3.org/Graphics/SVG/1.1/DTD/svg11.dtd">
<svg xmlns="http://www.w3.org/2000/svg" xmlns:xlink="http://www.w3.org/1999/xlink" version="1.1" baseProfile="full" width="24" height="24" viewBox="0 0 24.00 24.00" enable-background="new 0 0 24.00 24.00" xml:space="preserve">
	<path fill="#000000" fill-opacity="1" stroke-width="0.2" stroke-linejoin="round" d="M 5.9994,17C 5.9994,15 9.9994,13.9 11.9994,13.9C 13.9994,13.9 17.9994,15 17.9994,17L 17.9994,18L 5.9994,18M 14.9994,9C 14.9994,10.658 13.6554,12 11.9994,12C 10.3434,12 8.9994,10.658 8.9994,9C 8.9994,7.34399 10.3434,6 11.9994,6C 13.6554,6 14.9994,7.34399 14.9994,9 Z M 2.9994,5L 2.9994,19C 2.9994,20.104 3.8934,21 4.9994,21L 18.9994,21C 20.1029,21 20.9994,20.104 20.9994,19L 20.9994,5C 20.9994,3.896 20.1029,3 18.9994,3L 4.9994,3C 3.8934,3 2.9994,3.896 2.9994,5 Z "/>
</svg>

<svg xmlns="http://www.w3.org/2000/svg" width="24" height="24" baseProfile="full" viewBox="0 0 24 24"><path d="M6 17c0-2 4-3.1 6-3.1s6 1.1 6 3.1v1H6m9-9a3 3 0 11-6 0 3 3 0 016 0zM3 5v14a2 2 0 002 2h14c1.103 0 2-.896 2-2V5c0-1.104-.897-2-2-2H5a2 2 0 00-2 2z"/></svg>
